svg/menu_open.svg

<svg xmlns="http://www.w3.org/2000/svg" viewBox="0 0 24 24"><path d="M21 15.61 19.59 17l-5.01-5 5.01-5L21 8.39 17.44 12zM3 6h13v2H3zm0 7v-2h10v2zm0 5v-2h13v2z"/></svg>

<?xml version="1.0" encoding="UTF-8"?><!DOCTYPE svg PUBLIC "-//W3C//DTD SVG 1.1//EN" "http://www.w3.org/Graphics/SVG/1.1/DTD/svg11.dtd"><svg xmlns="http://www.w3.org/2000/svg" xmlns:xlink="http://www.w3.org/1999/xlink" version="1.1" id="mdi-menu-open" width="24" height="24" viewBox="0 0 24 24"><path d="M21,15.61L19.59,17L14.58,12L19.59,7L21,8.39L17.44,12L21,15.61M3,6H16V8H3V6M3,13V11H13V13H3M3,18V16H16V18H3Z" /></svg>
